X: 57
T:Missa Une mousse de Biscaye / Gloria
N: Derived from Jos0502b-Missa_Une_mousse_de_Biscaye-Gloria.krn
C: Josquin des Prez
%%abc-version 2.0
%%abcx-abcm2ps-target-version 5.9.1 (29 Sep 2008)
%%abc-creator hum2abc beta
%%abcx-conversion-date 2019/02/12 16:15:40
%%abc-edited-by Jesse Rodin
%%abc-edited-by Jesse Rodin; Victoria Chang 2012/02/05
%%abcx-initial-encoding-date 2012/02/05/
%%humdrum-veritas 4090308301
%%humdrum-veritas-data 599506376
%%linebreak <none>
%%barnumbers 0
L: 1/4
M: 3/1
Q: 1/2=120
%%staves [1 2 3 4]
V: 1 clef=treble
V: 2 clef=treble-8
V: 3 clef=treble-8
V: 4 clef=bass
K: F
[V:1] z4z4F4- | 
[V:2] F6G2A2B2- | 
[V:3] z12 :
[V:4] z12 | 
[V:1] F2G2A4B4 | 
[V:2] B2AGF2f2d2e2 | 
[V:3] x12 | 
[V:4] z12 | 
[V:1] A2B4AGF2GA | 
[V:2] f2d4cBA4 | 
[V:3] z12 :
[V:4] z4z4D,4 | 
[V:1] B2A4G4^F2 | 
[V:2] G2c3BG2A4 | 
[V:3] x12 | 
[V:4] G,,2F,4E,2D,4 | 
[V:1] G4z4A4 | 
[V:2] G2c4B2c2d2- | 
[V:3] z12 :
[V:4] E,2C,2D,4C,2F,2 | 
[V:1] A2A2B6AG | 
[V:2] dcBAG2d4cB | 
[V:3] x12 | 
[V:4] D,4z2D,2G,4 | 
[V:1] c3BA2G2F2B2 | 
[V:2] A3Bc4d4 | 
[V:3] z12 :
[V:4] F,6E,2D,2B,,2 | 
[V:1] A2G4F4E2 | 
[V:2] c4B2A2G4 | 
[V:3] x12 | 
[V:4] C,3D,E,2F,2C,4 | 
[V:1] F4z4z4 | 
[V:2] F8z4 | 
[V:3] z12 :
[V:4] z4D,4C,2C,2 | 
[V:1] z12 | 
[V:2] d4c2c2B2d2 | 
[V:3] x12 | 
[V:4] B,,2D,2E,2F,2G,2G,2 | 
[V:1] z12 | 
[V:2] e2f2g2g2c2d2 | 
[V:3] z12 :
[V:4] C,2D,2E,4F,2D,2- | 
[V:1] z12 | 
[V:2] e4f2d4^c2 | 
[V:3] x12 | 
[V:4] D,2C,2D,2F,2E,4 | 
[V:1] z12 | 
[V:2] d4z2A4B2 | 
[V:3] z12 :
[V:4] D,2F,3E,D,C,D,4 | 
[V:1] z12 | 
[V:2] c4d4B2c2- | 
[V:3] x12 | 
[V:4] E,2F,2D,2G,3F,E,D, | 
[V:1] z12 | 
[V:2] cBAGF2B4A2 | 
[V:3] z12 :
[V:4] C,2F,3E,D,2C,4 | 
[V:1] D4D2D2C2C2 | 
[V:2] B4B4c2c2 | 
[V:3] F12 | 
[V:4] B,,4B,,4A,,2A,,2 | 
[V:1] F4F3GA2F2- | 
[V:2] A2A2B4A4 | 
[V:3] F12- :
[V:4] D,2D,2B,,2B,,2F,,4 | 
[V:1] F2EDC4D4 | 
[V:2] F3GAGFED4 | 
[V:3] F12 | 
[V:4] B,,4A,,4B,,4 | 
[V:1] C2F4EDE4 | 
[V:2] E2F3GABc4 | 
[V:3] A12 :
[V:4] A,,4D,4C,4 | 
[V:1] D3EF2G3AB2 | 
[V:2] d6B3cd_e | 
[V:3] B12 | 
[V:4] B,,3C,D,2G,,2G,4 | 
[V:1] c2A4GFG4 | 
[V:2] c2f4ede4 | 
[V:3] A8G4 :
[V:4] A,3G,F,4C,2E,2 | 
[V:1] A4D2G4FE | 
[V:2] f2d4cBc4 | 
[V:3] F4G8 | 
[V:4] D,4B,,4_E,4 | 
[V:1] F2A4G4^F2 | 
[V:2] d2f4e2d4 | 
[V:3] A12 :
[V:4] D,3E,F,2C,2D,4 | 
[V:1] G4z4B4 | 
[V:2] B4_e4_e2_e2 | 
[V:3] G12 | 
[V:4] G,,4C,4G,,2G,,2 | 
[V:1] B2B2B4A3G | 
[V:2] d6e2f3e | 
[V:3] z12 :
[V:4] G,8F,4 | 
[V:1] FEG4F4E2 | 
[V:2] dcB2c2A2G4 | 
[V:3] x12 | 
[V:4] z2E,2C,2F,2C,4 | 
[V:1] F4z4E4 | 
[V:2] F4D4E4 | 
[V:3] A8A4 :
[V:4] D,6C,B,,C,4 | 
[V:1] D3EF2G3FG2 | 
[V:2] F2B3AGFG4 | 
[V:3] B8B4 | 
[V:4] B,,3C,D,2B,,2_E,4 | 
[V:1] A2c3BAGA4 | 
[V:2] F2A3GABc4 | 
[V:3] A8F4 :
[V:4] F,3E,/D,/C,2F,3E,D,C, | 
[V:1] B2G3F_EDF4 | 
[V:2] d2B4c2d4 | 
[V:3] G8F4 | 
[V:4] B,,4_E,4D,4 | 
[V:1] G4A2F4ED | 
[V:2] G4c4B4 | 
[V:3] E4F8 :
[V:4] C,2E,2D,4D,4 | 
[V:1] E2G4F4E2 | 
[V:2] c4B2d2c4 | 
[V:3] G12 | 
[V:4] C,3B,,/A,,/G,,2B,,2C,4 | 
[V:1] F8z4 | 
[V:2] A6B2c4 | 
[V:3] F12 :
[V:4] D,2F,4G,2A,4 | 
[V:1] F6G2A4 | 
[V:2] d6cBA2d2 | 
[V:3] z12 | 
[V:4] D,6E,2F,4 | 
[V:1] B6AG :
[V:2] B2d4cB :
[V:3] [M:4/2]z8 | 
[V:4] G,3F,D,2E,2 :
[V:1] c4 [I:setbarnb 36]| 
[V:2] A4 | 
[V:3] z4 :
[V:4] F,4 | 
[V:1] B2A2- :
[V:2] G2c2- :
[V:3] x4 | 
[V:4] G,2F,2- :
[V:1] AGG4^F2 [I:setbarnb 37]| 
[V:2] cBG2A4 | 
[V:3] z8 | 
[V:4] F,2_E,2D,4 | 
[V:1] G4z2A2- :
[V:2] G2c4c2 :
[V:3] z8 | 
[V:4] E,4F,4 :
[V:1] A2A2 [I:setbarnb 38]| 
[V:2] c2c2 | 
[V:3] z4 :
[V:4] F,2F,2- | 
[V:1] A2A2 :
[V:2] c4 :
[V:3] x4 | 
[V:4] F,2F,2 :
[V:1] A4B4 [I:setbarnb 39]| 
[V:2] d4B2G2 | 
[V:3] z8 | 
[V:4] D,4G,4 | 
[V:1] A2G4F2- :
[V:2] A2B3AF2 :
[V:3] z8 | 
[V:4] F,2E,4D,2 :
[V:1] F2E2 [I:setbarnb 40]| 
[V:2] G4 | 
[V:3] z4 :
[V:4] C,4 | 
[V:1] F4 :
[V:2] F3G :
[V:3] F4 | 
[V:4] D,4- :
[V:1] z4F4 [I:setbarnb 41]| 
[V:2] A2B3AB2 | 
[V:3] F8 | 
[V:4] D,2B,,3C,D,2 | 
[V:1] E2E2D4 :
[V:2] c4d4 :
[V:3] A4B4 | 
[V:4] C,4B,,4 :
[V:1] E2F2 [I:setbarnb 42]| 
[V:2] c2A2 | 
[V:3] A4 :
[V:4] C,2D,2 | 
[V:1] G2A2- :
[V:2] G2d2- :
[V:3] G2F2 | 
[V:4] _E,2D,2 :
[V:1] AGG4^F2 [I:setbarnb 43]| 
[V:2] d2c2d4 | 
[V:3] G4A4 | 
[V:4] _E,4D,4 | 
[V:1] G4F2E2 :
[V:2] B4A4 :
[V:3] G4z4 | 
[V:4] G,,4D,2A,,2 :
[V:1] D4 [I:setbarnb 44]| 
[V:2] F2G2 | 
[V:3] z4 :
[V:4] B,,4 | 
[V:1] C2F2 :
[V:2] E2D2 :
[V:3] A4 | 
[V:4] A,,2D,2 :
[V:1] E2D2F2G2 [I:setbarnb 45]| 
[V:2] E2F4D2- | 
[V:3] A2B4B2 | 
[V:4] C,2B,,2D,2G,,2 | 
[V:1] A3Bc2B2 :
[V:2] D2d2c2d2 :
[V:3] A4F2G2- | 
[V:4] F,3G,A,2G,2 :
[V:1] G2A2 [I:setbarnb 46]| 
[V:2] e2c2- | 
[V:3] G2F2 :
[V:4] E,2F,2 | 
[V:1] G2F2- :
[V:2] c2B2 :
[V:3] E2F2 | 
[V:4] C,2D,2 :
[V:1] F2E2F2A2- [I:setbarnb 47]| 
[V:2] c4A4 | 
[V:3] G4F4 | 
[V:4] C,4D,2F,2- | 
[V:1] AGFED4- :
[V:2] F4G4 :
[V:3] z4B4- | 
[V:4] F,E,D,C,B,,4- :
[V:1] D4- [I:setbarnb 48]| 
[V:2] F2G2- | 
[V:3] B4- :
[V:4] B,,4 | 
[V:1] D4- :
[V:2] G2FE :
[V:3] B4- | 
[V:4] B,,4- :
[V:1] D8 [I:setbarnb 49]||  
[V:2] D8 ||  
[V:3] B8 ||  
[V:4] B,,8 ||  
[V:1]  [K:F] [K:clef=treble][M:2/1]F6EF | 
[V:2]  [K:F] [K:clef=treble-8][M:2/1]z8 | 
[V:3]  [K:F] [K:clef=treble-8][M:2/1]z8 | 
[V:4]  [K:F] [K:clef=bass][M:2/1]z8 | 
[V:1] G4F2B2 | 
[V:2] z8 | 
[V:3] B6AB | 
[V:4] z8 | 
[V:1] A2G4FE | 
[V:2] z8 | 
[V:3] c3BG2A2 | 
[V:4] z8 | 
[V:1] DEFGA2B2- | 
[V:2] z8 | 
[V:3] B4c2d2- | 
[V:4] z8 | 
[V:1] B2AG^F4 | 
[V:2] z8 | 
[V:3] d2cBA4 | 
[V:4] D,4D,2D,2 | 
[V:1] G4z4 | 
[V:2] G4G2G2 | 
[V:3] G4z4 | 
[V:4] E,4E,4 | 
[V:1] z8 | 
[V:2] A6GA | 
[V:3] z8 | 
[V:4] C,2D,3C,B,,A,, | 
[V:1] z8 | 
[V:2] B6AG | 
[V:3] z8 | 
[V:4] G,,2G,4F,E, | 
[V:1] z8 | 
[V:2] A2c4B2- | 
[V:3] z8 | 
[V:4] F,3E,C,2D,2- | 
[V:1] z8 | 
[V:2] B2AGc4 | 
[V:3] z8 | 
[V:4] D,2C,B,,A,,4 | 
[V:1] z8 | 
[V:2] B2A4G2- | 
[V:3] z8 | 
[V:4] G,,2C,4B,,2 | 
[V:1] c4B2B2 | 
[V:2] G2^F2G2=F2 | 
[V:3] A4B2B2 | 
[V:4] A,,4G,,2D,2- | 
[V:1] c4A2B2 | 
[V:2] E4F3G | 
[V:3] A4d4 | 
[V:4] D,2C,2D,3E, | 
[V:1] A2B4AG | 
[V:2] A2G2B2c2 | 
[V:3] c2B2G4 | 
[V:4] F,2G,2E,4 | 
[V:1] F2G4^F2 | 
[V:2] d2c2d4 | 
[V:3] A2G2A4 | 
[V:4] D,2E,2D,4 | 
[V:1] G4z4 | 
[V:2] B4z4 | 
[V:3] G4z4 | 
[V:4] G,,4z4 | 
[V:1] F6F2 | 
[V:2] d6d2 | 
[V:3] A6A2 | 
[V:4] D,6D,2 | 
[V:1] F4F2F2 | 
[V:2] d4d2d2 | 
[V:3] A4A2A2 | 
[V:4] D,4D,2D,2 | 
[V:1] G2G2F4 | 
[V:2] d2d2d4 | 
[V:3] B2B2A4 | 
[V:4] G,,2G,,2D,4 | 
[V:1] G4E4 | 
[V:2] B4c4 | 
[V:3] G4A4 | 
[V:4] _E,4C,4 | 
[V:1] F8 | 
[V:2] A8 | 
[V:3] !fermata!F8- | 
[V:4] D,8 | 
[V:1] !fermata!D8 | 
[V:2] !fermata!B8 | 
[V:3] F8 | 
[V:4] !fermata!B,,8 | 
[V:1] z8 | 
[V:2] d4c2d2- | 
[V:3] z8 | 
[V:4] z4z2G,2- | 
[V:1] z8 | 
[V:2] def2e2d2- | 
[V:3] z8 | 
[V:4] G,2F,2G,3A, | 
[V:1] z8 | 
[V:2] d2cBA4 | 
[V:3] z8 | 
[V:4] B,2A,G,F,4 | 
[V:1] z8 | 
[V:2] G2d2c2f2 | 
[V:3] z8 | 
[V:4] B,4A,4 | 
[V:1] z8 | 
[V:2] e2f2e2f2- | 
[V:3] z8 | 
[V:4] G,2F,2G,2A,2 | 
[V:1] z8 | 
[V:2] fed4^c2 | 
[V:3] F4G4 | 
[V:4] D,4E,4 | 
[V:1] F4G4 | 
[V:2] d8 | 
[V:3] F4B4 | 
[V:4] D,4G,,4 | 
[V:1] F2A3GF2 | 
[V:2] d4c2A2- | 
[V:3] A3Bc2d2- | 
[V:4] D,2C,B,,A,,2D,2 | 
[V:1] E4D2F2- | 
[V:2] A2A2F3G | 
[V:3] d2c2B2AG | 
[V:4] A,,4D,3C,/B,,/ | 
[V:1] FGA2B2G2- | 
[V:2] A2c2B4 | 
[V:3] F4G3A | 
[V:4] A,,4G,,2_E,2- | 
[V:1] G2FEF3G | 
[V:2] G4A2F2 | 
[V:3] B2c2d4 | 
[V:4] E,4D,3=E, | 
[V:1] A2B4A2 | 
[V:2] z2f4f2 | 
[V:3] c2B2c4 | 
[V:4] F,2B,,2F,4 | 
[V:1] B4z4 | 
[V:2] d4z4 | 
[V:3] B4z4 | 
[V:4] G,4z4 | 
[V:1] G6G2 | 
[V:2] _e6_e2 | 
[V:3] B6B2 | 
[V:4] _E,6E,2 | 
[V:1] G4G4 | 
[V:2] _e4_e4 | 
[V:3] B4B4 | 
[V:4] _E,4E,4 | 
[V:1] A4G2A2- | 
[V:2] _e4_e2d2- | 
[V:3] c4B2A2- | 
[V:4] C,3D,_E,2F,2- | 
[V:1] AGE2F4 | 
[V:2] dcc4B2 | 
[V:3] A2G4F2 | 
[V:4] F,_E,C,2D,4 | 
[V:1] E2D2F2G2 | 
[V:2] c2d2c2B2 | 
[V:3] G2B2c2d2- | 
[V:4] C,2B,,2A,,2G,,2 | 
[V:1] F4E2F2 | 
[V:2] d4c2A2 | 
[V:3] dcBAG2F2 | 
[V:4] B,,4C,2D,2 | 
[V:1] D2G4^F2 | 
[V:2] z2d3cA2 | 
[V:3] B4A4 | 
[V:4] G,,4D,4 | 
[V:1] G4z4 | 
[V:2] B2cd_e2d2- | 
[V:3] G8- | 
[V:4] G,,8 | 
[V:1] B4B4 | 
[V:2] d2cBdcBA | 
[V:3] G8 | 
[V:4] G,8 | 
[V:1] B4c2A2- | 
[V:2] B4A2F2- | 
[V:3] z4A4- | 
[V:4] G,4F,4- | 
[V:1] A2GFE2F2- | 
[V:2] FGABc4 | 
[V:3] A4A4 | 
[V:4] F,2E,D,C,2A,,2 | 
[V:1] F2EDE4 | 
[V:2] z4c4 | 
[V:3] A8 | 
[V:4] D,4C,4 | 
[V:1] D2G4FE | 
[V:2] d2B4c2 | 
[V:3] B6AG | 
[V:4] B,,4_E,4 | 
[V:1] F2GAB4 | 
[V:2] d4B2d2- | 
[V:3] A4G4 | 
[V:4] D,4G,,4 | 
[V:1] A2F2G2A2- | 
[V:2] dcd2e2c2 | 
[V:3] F4E2F2- | 
[V:4] D,4C,2A,,2 | 
[V:1] AGF4E2 | 
[V:2] d2c4c2 | 
[V:3] FGA2G4 | 
[V:4] D,2F,2C,4 | 
[V:1] F8 | 
[V:2] A8 | 
[V:3] F4z4 | 
[V:4] z2D,3C,B,,A,, | 
[V:1] z8 | 
[V:2] z2B3AGF | 
[V:3] B8 | 
[V:4] G,,2G,3F,E,D, | 
[V:1] z8 | 
[V:2] G2A2B2A2- | 
[V:3] c4d4- | 
[V:4] E,2F,2B,,2F,2- | 
[V:1] z8 | 
[V:2] A2GFG2A2- | 
[V:3] d2cBc4 | 
[V:4] F,2E,D,E,2F,2- | 
[V:1] z8 | 
[V:2] AGFED2F2 | 
[V:3] F4B4 | 
[V:4] F,E,D,C,B,,2D,2 | 
[V:1] z8 | 
[V:2] G2A2B2cd | 
[V:3] c2d3cB2- | 
[V:4] E,2F,2B,,4 | 
[V:1] z4F4 | 
[V:2] _e4d2B2- | 
[V:3] B2A2B2d2- | 
[V:4] C,4B,,4 | 
[V:1] B4c2d2- | 
[V:2] Bcdef4 | 
[V:3] d2cBA2B2- | 
[V:4] G,,2G,2F,2D,2 | 
[V:1] dcB4A2 | 
[V:2] d2f4f2 | 
[V:3] Bcd2c4 | 
[V:4] B,,4F,4 | 
[V:1] B8 | 
[V:2] d8- | 
[V:3] B4z4 | 
[V:4] G,6F,E, | 
[V:1] z4B4 | 
[V:2] d8 | 
[V:3] B4B4 | 
[V:4] D,4D,4 | 
[V:1] G4A4 | 
[V:2] e4c4 | 
[V:3] c4A4 | 
[V:4] C,4F,4 | 
[V:1] F4G4- | 
[V:2] d4B4 | 
[V:3] B4G4 | 
[V:4] D,4_E,4- | 
[V:1] G2FED4 | 
[V:2] c4d4- | 
[V:3] z2G4F2 | 
[V:4] E,2D,C,B,,4 | 
[V:1] z2G4F2 | 
[V:2] d8 | 
[V:3] G2B2A4 | 
[V:4] G,,4D,4 | 
[V:1] G2B2A4 | 
[V:2] d4e2f2 | 
[V:3] G4z2c2- | 
[V:4] G,,2G,4F,2 | 
[V:1] G4z2c2- | 
[V:2] d4e2g2- | 
[V:3] c2B2c2_e2 | 
[V:4] G,3F,E,2C,2 | 
[V:1] c2B2c2_e2 | 
[V:2] g4g4- | 
[V:3] d4c4 | 
[V:4] G,4C,4 | 
[V:1] dcBAG2F2 | 
[V:2] g2G3AB2 | 
[V:3] z4B4 | 
[V:4] G,3F,E,2D,2 | 
[V:1] E4A4 | 
[V:2] G2c3de2 | 
[V:3] c4A4- | 
[V:4] C,2A,,3B,,C,2 | 
[V:1] F4G3F | 
[V:2] d2B3cd2 | 
[V:3] A2B6 | 
[V:4] D,4B,,4 | 
[V:1] E2D2C4 | 
[V:2] c2d2e4 | 
[V:3] G4A4 | 
[V:4] C,2B,,2A,,4 | 
[V:1] F4D4 | 
[V:2] d2B3cd2 | 
[V:3] F6G2- | 
[V:4] D,4B,,4 | 
[V:1] E4C2F2 | 
[V:2] c6F2 | 
[V:3] G4A4 | 
[V:4] C,4A,,2D,2 | 
[V:1] D2G2E2A2- | 
[V:2] G4A4 | 
[V:3] B4c4 | 
[V:4] B,,2_E,2C,2F,2- | 
[V:1] AGF2E4 | 
[V:2] z2A6 | 
[V:3] A2d4c2 | 
[V:4] F,E,D,2A,,4 | 
[V:1] D3EFGA2- | 
[V:2] F3GA4 | 
[V:3] B2d3ef2- | 
[V:4] D,8 | 
[V:1] A2B4A2 | 
[V:2] F2f6 | 
[V:3] fed2c4 | 
[V:4] D,2B,,2F,4 | 
[V:1] B2c2B2c2- | 
[V:2] d2f2d2f2- | 
[V:3] B2A2B2A2 | 
[V:4] G,2F,2G,2F,2 | 
[V:1] c2B4A2 | 
[V:2] f2e2f4 | 
[V:3] B4c4 | 
[V:4] G,4F,4 | 
[V:1] B8 |]  
[V:2] f8 |]  
[V:3] B8 |]  
[V:4] B,,8 |]  



